posts/2020-05-14/simulated-annealing-with-python/final_airfoil_compare.svg

<?xml version="1.0" encoding="utf-8" standalone="no"?>
<!DOCTYPE svg PUBLIC "-//W3C//DTD SVG 1.1//EN"
  "http://www.w3.org/Graphics/SVG/1.1/DTD/svg11.dtd">
<svg height="166.581818pt" version="1.1" viewBox="0 0 572.4 166.581818" width="572.4pt" xmlns="http://www.w3.org/2000/svg" xmlns:xlink="http://www.w3.org/1999/xlink">
 <metadata>
  <rdf:RDF xmlns:cc="http://creativecommons.org/ns#" xmlns:dc="http://purl.org/dc/elements/1.1/" xmlns:rdf="http://www.w3.org/1999/02/22-rdf-syntax-ns#">
   <cc:Work>
    <dc:type rdf:resource="http://purl.org/dc/dcmitype/StillImage"/>
    <dc:date>2021-06-09T17:01:35.337327</dc:date>
    <dc:format>image/svg+xml</dc:format>
    <dc:creator>
     <cc:Agent>
      <dc:title>Matplotlib v3.4.2, https://matplotlib.org/</dc:title>
     </cc:Agent>
    </dc:creator>
   </cc:Work>
  </rdf:RDF>
 </metadata>
 <defs>
  <style type="text/css">*{stroke-linecap:butt;stroke-linejoin:round;}</style>
 </defs>
 <g id="figure_1">
  <g id="patch_1">
   <path d="M 0 166.581818 
L 572.4 166.581818 
L 572.4 -0 
L 0 -0 
z
" style="fill:none;"/>
  </g>
  <g id="axes_1">
   <g id="patch_2">
    <path d="M 7.2 159.381818 
L 565.2 159.381818 
L 565.2 7.2 
L 7.2 7.2 
z
" style="fill:none;"/>
   </g>
   <g id="line2d_1">
    <path clip-path="url(#p312a9495de)" d="M 539.836364 82.651745 
L 539.488764 82.600736 
L 538.446917 82.448255 
L 536.713679 82.195928 
L 534.293801 81.846394 
L 531.193914 81.403224 
L 527.422516 80.870795 
L 522.989945 80.25416 
L 517.908348 79.558905 
L 512.191655 78.791002 
L 505.855534 77.956677 
L 498.917353 77.062283 
L 491.396129 76.11419 
L 483.312476 75.118697 
L 474.688551 74.081954 
L 465.547993 73.009906 
L 455.915854 71.90825 
L 445.818536 70.782408 
L 435.283714 69.637503 
L 424.340264 68.478359 
L 413.018182 67.30949 
L 401.348499 66.135112 
L 389.363203 64.959146 
L 377.095144 63.785231 
L 364.577947 62.616735 
L 351.845921 61.459561 
L 338.933965 60.33774 
L 325.877469 59.263127 
L 312.712219 58.244218 
L 299.474302 57.289453 
L 286.2 56.407174 
L 272.925698 55.605578 
L 259.687781 54.892676 
L 246.522531 54.276236 
L 233.466035 53.763733 
L 220.554079 53.362287 
L 207.822053 53.0786 
L 195.304856 52.918881 
L 183.036797 52.888766 
L 171.051501 52.992336 
L 159.381818 53.216247 
L 148.059736 53.559122 
L 137.116286 54.026937 
L 126.581464 54.62577 
L 116.484146 55.3619 
L 106.852007 56.241958 
L 97.711449 57.273175 
L 89.087524 58.463751 
L 81.003871 59.823479 
L 73.482647 61.36479 
L 66.544466 63.104627 
L 60.208345 64.984921 
L 54.491652 66.899395 
L 49.410055 68.846296 
L 44.977484 70.824631 
L 41.206086 72.833342 
L 38.106199 74.871303 
L 35.686321 76.937326 
L 33.953083 79.030158 
L 32.911236 81.148479 
L 32.563636 83.290909 
L 32.911236 85.668228 
L 33.953083 87.973418 
L 35.686321 90.205116 
L 38.106199 92.362154 
L 41.206086 94.44356 
L 44.977484 96.448553 
L 49.410055 98.376547 
L 54.491652 100.227145 
L 60.208345 101.999468 
L 66.544466 103.665387 
L 73.482647 105.209571 
L 81.003871 106.632054 
L 89.087524 107.933609 
L 97.711449 109.115582 
L 106.852007 110.179793 
L 116.484146 111.128466 
L 126.581464 111.964181 
L 137.116286 112.689832 
L 148.059736 113.258771 
L 159.381818 113.620712 
L 171.051501 113.804139 
L 183.036797 113.831048 
L 195.304856 113.71891 
L 207.822053 113.482231 
L 220.554079 113.133496 
L 233.466035 112.683771 
L 246.522531 112.143097 
L 259.687781 111.520759 
L 272.925698 110.825467 
L 286.2 110.065484 
L 299.474302 109.245485 
L 312.712219 108.348952 
L 325.877469 107.37993 
L 338.933965 106.347731 
L 351.845921 105.261642 
L 364.577947 104.130894 
L 377.095144 102.964635 
L 389.363203 101.771897 
L 401.348499 100.561569 
L 413.018182 99.342368 
L 424.340264 98.122809 
L 435.283714 96.911182 
L 445.818536 95.715521 
L 455.915854 94.543583 
L 465.547993 93.40282 
L 474.688551 92.300357 
L 483.312476 91.242971 
L 491.396129 90.237065 
L 498.917353 89.288655 
L 505.855534 88.403345 
L 512.191655 87.586312 
L 517.908348 86.842291 
L 522.989945 86.175558 
L 527.422516 85.589919 
L 531.193914 85.088694 
L 534.293801 84.674713 
L 536.713679 84.350301 
L 538.446917 84.117276 
L 539.488764 83.976939 
L 539.836364 83.930073 
" style="fill:none;stroke:#000000;stroke-dasharray:3.7,1.6;stroke-dashoffset:0;"/>
   </g>
   <g id="line2d_2">
    <path clip-path="url(#p312a9495de)" d="M 539.836364 82.651745 
L 539.488764 82.486344 
L 538.446917 81.993224 
L 536.713679 81.181515 
L 534.293801 80.066017 
L 531.193914 78.666624 
L 527.422516 77.007574 
L 522.989945 75.116591 
L 517.908348 73.023975 
L 512.191655 70.761697 
L 505.855534 68.362529 
L 498.917353 65.859269 
L 491.396129 63.284058 
L 483.312476 60.667812 
L 474.688551 58.039768 
L 465.547993 55.427145 
L 455.915854 52.854897 
L 445.818536 50.345557 
L 435.283714 47.919158 
L 424.340264 45.593207 
L 413.018182 43.382714 
L 401.348499 41.300259 
L 389.363203 39.356076 
L 377.095144 37.558175 
L 364.577947 35.912462 
L 351.845921 34.417532 
L 338.933965 33.04465 
L 325.877469 31.803315 
L 312.712219 30.710572 
L 299.474302 29.783296 
L 286.2 29.038102 
L 272.925698 28.49124 
L 259.687781 28.158497 
L 246.522531 28.055081 
L 233.466035 28.195493 
L 220.554079 28.593399 
L 207.822053 29.261476 
L 195.304856 30.211245 
L 183.036797 31.452883 
L 171.051501 32.987698 
L 159.381818 34.672943 
L 148.059736 36.453194 
L 137.116286 38.331568 
L 126.581464 40.311422 
L 116.484146 42.396483 
L 106.852007 44.591034 
L 97.711449 46.900203 
L 89.087524 49.330407 
L 81.003871 51.890074 
L 73.482647 54.590864 
L 66.544466 57.449839 
L 60.208345 60.384318 
L 54.491652 63.250158 
L 49.410055 66.042733 
L 44.977484 68.758732 
L 41.206086 71.395074 
L 38.106199 73.948915 
L 35.686321 76.417652 
L 33.953083 78.798927 
L 32.911236 81.090632 
L 32.563636 83.290909 
L 32.911236 85.5961 
L 33.953083 87.685104 
L 35.686321 89.55715 
L 38.106199 91.212057 
L 41.206086 92.650228 
L 44.977484 93.872647 
L 49.410055 94.88087 
L 54.491652 95.677022 
L 60.208345 96.26461 
L 66.544466 96.680373 
L 73.482647 96.943884 
L 81.003871 97.057341 
L 89.087524 97.023634 
L 97.711449 96.846218 
L 106.852007 96.529045 
L 116.484146 96.076505 
L 126.581464 95.493385 
L 137.116286 94.784836 
L 148.059736 93.858013 
L 159.381818 92.60169 
L 171.051501 91.057601 
L 183.036797 89.259543 
L 195.304856 87.235503 
L 207.822053 85.009688 
L 220.554079 82.603753 
L 233.466035 80.037577 
L 246.522531 77.329771 
L 259.687781 74.49801 
L 272.925698 71.559262 
L 286.2 68.529935 
L 299.474302 65.492693 
L 312.712219 62.954321 
L 325.877469 60.982615 
L 338.933965 59.535459 
L 351.845921 58.570708 
L 364.577947 58.046344 
L 377.095144 57.92062 
L 389.363203 58.152211 
L 401.348499 58.700357 
L 413.018182 59.525004 
L 424.340264 60.586946 
L 435.283714 61.847955 
L 445.818536 63.270914 
L 455.915854 64.819944 
L 465.547993 66.460521 
L 474.688551 68.159599 
L 483.312476 69.885715 
L 491.396129 71.609099 
L 498.917353 73.30177 
L 505.855534 74.937631 
L 512.191655 76.492556 
L 517.908348 77.944469 
L 522.989945 79.273418 
L 527.422516 80.46164 
L 531.193914 81.493621 
L 534.293801 82.356145 
L 536.713679 83.03834 
L 538.446917 83.531713 
L 539.488764 83.830178 
L 539.836364 83.930073 
" style="fill:none;stroke:#079992;stroke-linecap:square;stroke-width:1.5;"/>
   </g>
   <g id="legend_1">
    <g id="patch_3">
     <path d="M 217.178437 153.881818 
L 355.221563 153.881818 
Q 357.421562 153.881818 357.421562 151.681818 
L 357.421562 136.280099 
Q 357.421562 134.080099 355.221563 134.080099 
L 217.178437 134.080099 
Q 214.978437 134.080099 214.978437 136.280099 
L 214.978437 151.681818 
Q 214.978437 153.881818 217.178437 153.881818 
z
" style="fill:none;opacity:0.8;"/>
    </g>
    <g id="line2d_3">
     <path d="M 219.378437 142.988381 
L 241.378437 142.988381 
" style="fill:none;stroke:#000000;stroke-dasharray:3.7,1.6;stroke-dashoffset:0;"/>
    </g>
    <g id="line2d_4"/>
    <g id="text_1">
     <!-- initial -->
     <g transform="translate(250.178438 146.838381)scale(0.11 -0.11)">
      <defs>
       <path d="M 1069 0 
L 550 0 
L 550 3425 
L 1069 3425 
L 1069 0 
z
M 506 4353 
Q 506 4531 593 4614 
Q 681 4697 813 4697 
Q 938 4697 1028 4612 
Q 1119 4528 1119 4353 
Q 1119 4178 1028 4092 
Q 938 4006 813 4006 
Q 681 4006 593 4092 
Q 506 4178 506 4353 
z
" id="OpenSans-Regular-69" transform="scale(0.015625)"/>
       <path d="M 2894 0 
L 2894 2216 
Q 2894 2634 2703 2840 
Q 2513 3047 2106 3047 
Q 1569 3047 1319 2756 
Q 1069 2466 1069 1797 
L 1069 0 
L 550 0 
L 550 3425 
L 972 3425 
L 1056 2956 
L 1081 2956 
Q 1241 3209 1528 3348 
Q 1816 3488 2169 3488 
Q 2788 3488 3100 3189 
Q 3413 2891 3413 2234 
L 3413 0 
L 2894 0 
z
" id="OpenSans-Regular-6e" transform="scale(0.015625)"/>
       <path d="M 1656 366 
Q 1794 366 1922 386 
Q 2050 406 2125 428 
L 2125 31 
Q 2041 -9 1877 -36 
Q 1713 -63 1581 -63 
Q 588 -63 588 984 
L 588 3022 
L 97 3022 
L 97 3272 
L 588 3488 
L 806 4219 
L 1106 4219 
L 1106 3425 
L 2100 3425 
L 2100 3022 
L 1106 3022 
L 1106 1006 
Q 1106 697 1253 531 
Q 1400 366 1656 366 
z
" id="OpenSans-Regular-74" transform="scale(0.015625)"/>
       <path d="M 2656 0 
L 2553 488 
L 2528 488 
Q 2272 166 2017 51 
Q 1763 -63 1381 -63 
Q 872 -63 583 200 
Q 294 463 294 947 
Q 294 1984 1953 2034 
L 2534 2053 
L 2534 2266 
Q 2534 2669 2361 2861 
Q 2188 3053 1806 3053 
Q 1378 3053 838 2791 
L 678 3188 
Q 931 3325 1232 3403 
Q 1534 3481 1838 3481 
Q 2450 3481 2745 3209 
Q 3041 2938 3041 2338 
L 3041 0 
L 2656 0 
z
M 1484 366 
Q 1969 366 2245 631 
Q 2522 897 2522 1375 
L 2522 1684 
L 2003 1663 
Q 1384 1641 1111 1470 
Q 838 1300 838 941 
Q 838 659 1008 512 
Q 1178 366 1484 366 
z
" id="OpenSans-Regular-61" transform="scale(0.015625)"/>
       <path d="M 1069 0 
L 550 0 
L 550 4863 
L 1069 4863 
L 1069 0 
z
" id="OpenSans-Regular-6c" transform="scale(0.015625)"/>
      </defs>
      <use xlink:href="#OpenSans-Regular-69"/>
      <use x="25.292969" xlink:href="#OpenSans-Regular-6e"/>
      <use x="86.669922" xlink:href="#OpenSans-Regular-69"/>
      <use x="111.962891" xlink:href="#OpenSans-Regular-74"/>
      <use x="147.265625" xlink:href="#OpenSans-Regular-69"/>
      <use x="172.558594" xlink:href="#OpenSans-Regular-61"/>
      <use x="228.173828" xlink:href="#OpenSans-Regular-6c"/>
     </g>
    </g>
    <g id="line2d_5">
     <path d="M 300.06 142.988381 
L 322.06 142.988381 
" style="fill:none;stroke:#079992;stroke-linecap:square;stroke-width:1.5;"/>
    </g>
    <g id="line2d_6"/>
    <g id="text_2">
     <!-- final -->
     <g transform="translate(330.86 146.838381)scale(0.11 -0.11)">
      <defs>
       <path d="M 2094 3022 
L 1222 3022 
L 1222 0 
L 703 0 
L 703 3022 
L 91 3022 
L 91 3256 
L 703 3444 
L 703 3634 
Q 703 4897 1806 4897 
Q 2078 4897 2444 4788 
L 2309 4372 
Q 2009 4469 1797 4469 
Q 1503 4469 1362 4273 
Q 1222 4078 1222 3647 
L 1222 3425 
L 2094 3425 
L 2094 3022 
z
" id="OpenSans-Regular-66" transform="scale(0.015625)"/>
      </defs>
      <use xlink:href="#OpenSans-Regular-66"/>
      <use x="33.886719" xlink:href="#OpenSans-Regular-69"/>
      <use x="59.179688" xlink:href="#OpenSans-Regular-6e"/>
      <use x="120.556641" xlink:href="#OpenSans-Regular-61"/>
      <use x="176.171875" xlink:href="#OpenSans-Regular-6c"/>
     </g>
    </g>
   </g>
  </g>
 </g>
 <defs>
  <clipPath id="p312a9495de">
   <rect height="152.181818" width="558" x="7.2" y="7.2"/>
  </clipPath>
 </defs>
</svg>

<?xml version="1.0" encoding="UTF-8"?>
<!DOCTYPE svg  PUBLIC '-//W3C//DTD SVG 1.1//EN'  'http://www.w3.org/Graphics/SVG/1.1/DTD/svg11.dtd'>
<svg width="572.4pt" height="166.58pt" version="1.1" viewBox="0 0 572.4 166.581818" xmlns="http://www.w3.org/2000/svg" xmlns:xlink="http://www.w3.org/1999/xlink">
<metadata>
<rdf:RDF xmlns:cc="http://creativecommons.org/ns#" xmlns:dc="http://purl.org/dc/elements/1.1/" xmlns:rdf="http://www.w3.org/1999/02/22-rdf-syntax-ns#">
<cc:Work>
<dc:type rdf:resource="http://purl.org/dc/dcmitype/StillImage"/>
<dc:date>2021-06-09T17:01:35.337327</dc:date>
<dc:format>image/svg+xml</dc:format>
<dc:creator>
<cc:Agent>
<dc:title>Matplotlib v3.4.2, https://matplotlib.org/</dc:title>
</cc:Agent>
</dc:creator>
</cc:Work>
</rdf:RDF>
</metadata>
<defs>
<style type="text/css">*{stroke-linecap:butt;stroke-linejoin:round;}</style>
</defs>
<path d="m0 166.58h572.4v-166.58h-572.4z" fill="none"/>
<path d="m7.2 159.38h558v-152.18h-558z" fill="none"/>
<path d="m539.84 82.652l-0.3476-0.051009-1.0418-0.15248-1.7332-0.25233-2.4199-0.34953-3.0999-0.44317-3.7714-0.53243-4.4326-0.61664-5.0816-0.69526-5.7167-0.7679-6.3361-0.83432-6.9382-0.89439-7.5212-0.94809-8.0837-0.99549-8.6239-1.0367-9.1406-1.072-9.6321-1.1017-10.097-1.1258-10.535-1.1449-10.943-1.1591-11.322-1.1689-11.67-1.1744-11.985-1.176-12.268-1.1739-12.517-1.1685-12.732-1.1572-12.912-1.1218-13.056-1.0746-13.165-1.0189-13.238-0.95476-13.274-0.88228-13.274-0.8016-13.238-0.7129-13.165-0.61644-13.056-0.5125-12.912-0.40145-12.732-0.28369-12.517-0.15972-12.268-0.030115-11.985 0.10357-11.67 0.22391-11.322 0.34288-10.943 0.46782-10.535 0.59883-10.097 0.73613-9.6321 0.88006-9.1406 1.0312-8.6239 1.1906-8.0837 1.3597-7.5212 1.5413-6.9382 1.7398-6.3361 1.8803-5.7167 1.9145-5.0816 1.9469-4.4326 1.9783-3.7714 2.0087-3.0999 2.038-2.4199 2.066-1.7332 2.0928-1.0418 2.1183-0.3476 2.1424 0.3476 2.3773 1.0418 2.3052 1.7332 2.2317 2.4199 2.157 3.0999 2.0814 3.7714 2.005 4.4326 1.928 5.0816 1.8506 5.7167 1.7723 6.3361 1.6659 6.9382 1.5442 7.5212 1.4225 8.0837 1.3016 8.6239 1.182 9.1406 1.0642 9.6321 0.94867 10.097 0.83572 10.535 0.72565 10.943 0.56894 11.322 0.36194 11.67 0.18343 11.985 0.026909 12.268-0.11214 12.517-0.23668 12.732-0.34874 12.912-0.44972 13.056-0.54067 13.165-0.62234 13.238-0.69529 13.274-0.75998 13.274-0.82 13.238-0.89653 13.165-0.96902 13.056-1.0322 12.912-1.0861 12.732-1.1307 12.517-1.1663 12.268-1.1927 11.985-1.2103 11.67-1.2192 11.322-1.2196 10.943-1.2116 10.535-1.1957 10.097-1.1719 9.6321-1.1408 9.1406-1.1025 8.6239-1.0574 8.0837-1.0059 7.5212-0.94841 6.9382-0.88531 6.3361-0.81703 5.7167-0.74402 5.0816-0.66673 4.4326-0.58564 3.7714-0.50122 3.0999-0.41398 2.4199-0.32441 1.7332-0.23302 1.0418-0.14034 0.3476-0.046866" clip-path="url(#b)" fill="none" stroke="#000" stroke-dasharray="3.7,1.6"/>
<path d="m539.84 82.652l-0.3476-0.1654-1.0418-0.49312-1.7332-0.81171-2.4199-1.1155-3.0999-1.3994-3.7714-1.659-4.4326-1.891-5.0816-2.0926-5.7167-2.2623-6.3361-2.3992-6.9382-2.5033-7.5212-2.5752-8.0837-2.6162-8.6239-2.628-9.1406-2.6126-9.6321-2.5722-10.097-2.5093-10.535-2.4264-10.943-2.326-11.322-2.2105-11.67-2.0825-11.985-1.9442-12.268-1.7979-12.517-1.6457-12.732-1.4949-12.912-1.3729-13.056-1.2413-13.165-1.0927-13.238-0.92728-13.274-0.74519-13.274-0.54686-13.238-0.33274-13.165-0.10342-13.056 0.14041-12.912 0.39791-12.732 0.66808-12.517 0.94977-12.268 1.2416-11.985 1.5348-11.67 1.6852-11.322 1.7803-10.943 1.8784-10.535 1.9799-10.097 2.0851-9.6321 2.1946-9.1406 2.3092-8.6239 2.4302-8.0837 2.5597-7.5212 2.7008-6.9382 2.859-6.3361 2.9345-5.7167 2.8658-5.0816 2.7926-4.4326 2.716-3.7714 2.6363-3.0999 2.5538-2.4199 2.4687-1.7332 2.3813-1.0418 2.2917-0.3476 2.2003 0.3476 2.3052 1.0418 2.089 1.7332 1.872 2.4199 1.6549 3.0999 1.4382 3.7714 1.2224 4.4326 1.0082 5.0816 0.79615 5.7167 0.58759 6.3361 0.41576 6.9382 0.26351 7.5212 0.11346 8.0837-0.033707 8.6239-0.17742 9.1406-0.31717 9.6321-0.45254 10.097-0.58312 10.535-0.70855 10.943-0.92682 11.322-1.2563 11.67-1.5441 11.985-1.7981 12.268-2.024 12.517-2.2258 12.732-2.4059 12.912-2.5662 13.056-2.7078 13.165-2.8318 13.238-2.9387 13.274-3.0293 13.274-3.0372 13.238-2.5384 13.165-1.9717 13.056-1.4472 12.912-0.96475 12.732-0.52436 12.517-0.12572 12.268 0.23159 11.985 0.54815 11.67 0.82465 11.322 1.0619 10.943 1.261 10.535 1.423 10.097 1.549 9.6321 1.6406 9.1406 1.6991 8.6239 1.7261 8.0837 1.7234 7.5212 1.6927 6.9382 1.6359 6.3361 1.5549 5.7167 1.4519 5.0816 1.3289 4.4326 1.1882 3.7714 1.032 3.0999 0.86252 2.4199 0.6822 1.7332 0.49337 1.0418 0.29846 0.3476 0.099895" clip-path="url(#b)" fill="none" stroke="#079992" stroke-linecap="square" stroke-width="1.5"/>
<path d="m217.18 153.88h138.04q2.2 0 2.2-2.2v-15.402q0-2.2-2.2-2.2h-138.04q-2.2 0-2.2 2.2v15.402q0 2.2 2.2 2.2z" fill="none" opacity=".8"/>
<path d="m219.38 142.99h22" fill="none" stroke="#000" stroke-dasharray="3.7,1.6"/>
<g transform="translate(250.18 146.84) scale(.11 -.11)">
<defs>
<path id="a" transform="scale(.015625)" d="m1069 0h-519v3425h519v-3425zm-563 4353q0 178 87 261 88 83 220 83 125 0 215-85 91-84 91-259t-91-261q-90-86-215-86-132 0-220 86-87 86-87 261z"/>
<path id="c" transform="scale(.015625)" d="m2894 0v2216q0 418-191 624-190 207-597 207-537 0-787-291-250-290-250-959v-1797h-519v3425h422l84-469h25q160 253 447 392 288 140 641 140 619 0 931-299 313-298 313-955v-2234h-519z"/>
<path id="f" transform="scale(.015625)" d="m1656 366q138 0 266 20t203 42v-397q-84-40-248-67t-296-27q-993 0-993 1047v2038h-491v250l491 216 218 731h300v-794h994v-403h-994v-2016q0-309 147-475 147-165 403-165z"/>
<path id="e" transform="scale(.015625)" d="m2656 0l-103 488h-25q-256-322-511-437-254-114-636-114-509 0-798 263t-289 747q0 1037 1659 1087l581 19v213q0 403-173 595t-555 192q-428 0-968-262l-160 397q253 137 554 215 302 78 606 78 612 0 907-272 296-271 296-871v-2338h-385zm-1172 366q485 0 761 265 277 266 277 744v309l-519-21q-619-22-892-193-273-170-273-529 0-282 170-429 170-146 476-146z"/>
<path id="d" transform="scale(.015625)" d="m1069 0h-519v4863h519v-4863z"/>
</defs>
<use xlink:href="#a"/>
<use x="25.292969" xlink:href="#c"/>
<use x="86.669922" xlink:href="#a"/>
<use x="111.962891" xlink:href="#f"/>
<use x="147.265625" xlink:href="#a"/>
<use x="172.558594" xlink:href="#e"/>
<use x="228.173828" xlink:href="#d"/>
</g>
<path d="m300.06 142.99h22" fill="none" stroke="#079992" stroke-linecap="square" stroke-width="1.5"/>
<g transform="translate(330.86 146.84) scale(.11 -.11)">
<defs>
<path id="g" transform="scale(.015625)" d="m2094 3022h-872v-3022h-519v3022h-612v234l612 188v190q0 1263 1103 1263 272 0 638-109l-135-416q-300 97-512 97-294 0-435-196-140-195-140-626v-222h872v-403z"/>
</defs>
<use xlink:href="#g"/>
<use x="33.886719" xlink:href="#a"/>
<use x="59.179688" xlink:href="#c"/>
<use x="120.556641" xlink:href="#e"/>
<use x="176.171875" xlink:href="#d"/>
</g>
<defs>
<clipPath id="b">
<rect x="7.2" y="7.2" width="558" height="152.18"/>
</clipPath>
</defs>
</svg>
